public/images/protect-balance.svg

<svg width="65" height="65" viewBox="0 0 65 65" fill="none" xmlns="http://www.w3.org/2000/svg">
<path d="M32.5 65C50.4493 65 65 50.4493 65 32.5C65 14.5507 50.4493 0 32.5 0C14.5507 0 0 14.5507 0 32.5C0 50.4493 14.5507 65 32.5 65Z" fill="#E9E9FD"/>
<path d="M36.2295 32C36.2295 32 36.0295 36.24 39.2295 36.24H48.5295C51.7195 36.24 51.5295 32 51.5295 32H50.4095L43.9995 19.76H46.3795C46.6006 19.7574 46.8117 19.6677 46.9671 19.5105C47.1224 19.3533 47.2096 19.1411 47.2095 18.92C47.2095 18.6999 47.1221 18.4888 46.9664 18.3331C46.8108 18.1775 46.5997 18.09 46.3795 18.09H33.4995V17.65C33.4921 17.5277 33.46 17.4081 33.4052 17.2985C33.3504 17.1889 33.274 17.0914 33.1806 17.012C33.0872 16.9327 32.9787 16.873 32.8617 16.8365C32.7447 16.8001 32.6215 16.7877 32.4995 16.8V16.8C32.3776 16.7877 32.2544 16.8001 32.1374 16.8365C32.0204 16.873 31.9119 16.9327 31.8185 17.012C31.7251 17.0914 31.6487 17.1889 31.5939 17.2985C31.5391 17.4081 31.507 17.5277 31.4995 17.65V18.09H18.6695C18.4485 18.09 18.2363 18.1772 18.0791 18.3325C17.9218 18.4879 17.8322 18.699 17.8295 18.92C17.8321 19.142 17.9215 19.3542 18.0784 19.5111C18.2354 19.6681 18.4476 19.7574 18.6695 19.76H20.7595L14.6995 32H13.4995C13.4995 32 13.2995 36.24 16.4995 36.24H25.7895C28.9795 36.24 28.7895 32 28.7895 32H27.7895L21.3095 19.76H31.3895L29.7995 43H20.6195C16.6795 43 15.5195 48.2 15.5195 48.2H49.5195C49.5195 48.2 48.3195 43 44.3695 43H35.1995L33.6095 19.76H43.4195L37.3595 32H36.2295ZM26.6195 32H15.7595L21.0995 21.13L26.6195 32ZM43.7595 21.13L49.2795 32H38.4195L43.7595 21.13Z" fill="#2B237C"/>
</svg>

<svg xmlns="http://www.w3.org/2000/svg" viewBox="0 0 65 65"><defs><style>.cls-1{fill:#f0f5f7;}.cls-2{fill:#2c3e50;}</style></defs><title>protect-balance</title><g id="Layer_2" data-name="Layer 2"><g id="icons"><circle class="cls-1" cx="32.5" cy="32.5" r="32.5"/><path id="_4" data-name="4" class="cls-2" d="M36.23,32s-.2,4.24,3,4.24h9.3c3.19,0,3-4.24,3-4.24H50.41L44,19.76h2.38a.84.84,0,0,0,.83-.84.83.83,0,0,0-.83-.83H33.5l0-.44a.91.91,0,0,0-1-.85h0a.91.91,0,0,0-1,.85l0,.44H18.67a.84.84,0,0,0-.84.83.85.85,0,0,0,.84.84h2.09L14.7,32H13.5s-.2,4.24,3,4.24h9.29c3.19,0,3-4.24,3-4.24h-1L21.31,19.76H31.39L29.8,43H20.62c-3.94,0-5.1,5.2-5.1,5.2h34S48.32,43,44.37,43H35.2L33.61,19.76h9.81L37.36,32Zm-9.61,0H15.76L21.1,21.13ZM43.76,21.13,49.28,32H38.42Z"/></g></g></svg>
